src/img/footer/footer-bg.svg

<svg preserveAspectRatio="none" viewBox="0 0 1440 185" fill="none" xmlns="http://www.w3.org/2000/svg">
<path d="M1440 121V164.6C1293.8 159.2 1159.1 138.6 1026.1 113.7C970.399 103.3 914.899 92.1 858.999 80.9C846.599 78.4 834.099 75.9 821.699 73.5C790.499 67.3 759.199 61.2 727.499 55.3C606.799 32.8 481.599 13.2 345.199 4.29998C358.899 3.89998 372.899 3.59998 387.699 3.59998C781.899 5.29998 1081 110.7 1440 121Z" fill="#BBBBBB"/>
<path d="M1440 164.7V185.2H0V18.8C97.3 5.4 158.5 0 228.2 0C243 0 258.1 0.3 274 0.7C298.1 1.6 321.8 2.8 345.2 4.3C481.6 13.2 606.8 32.8 727.5 55.3C759.2 61.2 790.5 67.3 821.7 73.5C834.2 76 846.6 78.5 859 80.9C914.9 92.1 970.3 103.3 1026.1 113.8C1159.1 138.7 1293.8 159.3 1440 164.7Z" fill="url(#paint0_linear_0_266)"/>
<defs>
<linearGradient id="paint0_linear_0_266" x1="0" y1="92.6046" x2="1440" y2="92.6046" gradientUnits="userSpaceOnUse">
<stop stop-color="#3483C7"/>
<stop offset="1" stop-color="#073773"/>
</linearGradient>
</defs>
</svg>

<svg xmlns="http://www.w3.org/2000/svg" fill="none" preserveAspectRatio="none" viewBox="0 0 1440 185"><path d="M1440 121v43.6c-146.2-5.4-280.9-26-413.9-50.9-55.701-10.4-111.201-21.6-167.101-32.8-12.4-2.5-24.9-5-37.3-7.4-31.2-6.2-62.5-12.3-94.2-18.2-120.7-22.5-245.9-42.1-382.3-51 13.7-.4 27.7-.7 42.5-.7C781.899 5.3 1081 110.7 1440 121Z" fill="%23BBB"/><path d="M1440 164.7v20.5H0V18.8C97.3 5.4 158.5 0 228.2 0c14.8 0 29.9.3 45.8.7 24.1.9 47.8 2.1 71.2 3.6 136.4 8.9 261.6 28.5 382.3 51 31.7 5.9 63 12 94.2 18.2 12.5 2.5 24.9 5 37.3 7.4 55.9 11.2 111.3 22.4 167.1 32.9 133 24.9 267.7 45.5 413.9 50.9Z" fill="url(%23a)"/><defs><linearGradient id="a" x1="0" x2="1440" y1="92.605" y2="92.605" gradientUnits="userSpaceOnUse"><stop stop-color="%233483C7"/><stop offset="1" stop-color="%23073773"/></linearGradient></defs></svg>
